!!!OTL: Das Maedchen und der Faehnrich Es wohnte ein reiches Schlaechterlein
!!!ARE: Europa, Mitteleuropa, Deutschland (), Brandenburg, Neustadt - Eberswalde
!!!YOR: 6, S. 107
!!    1840 aufgezeichnet
!!!SCT: Q0127E
!!!YEM: Copyright 1995, estate of Helmut Schaffrath.
**kern
*ICvox
*Ivox
*M4/4
*k[b-e-]
*g:
{4b-
=1
8cc
8b-
8a
8g
4fn
8g
8a
=2
4b-
4b-
4b-}
{4b-
=3
4cc
4b-
4g
8cc
8b-
=4
2g
4g}
{4b-
=5
8cc
8b-
8a
8g
4fn
8g
8a
=6
4b-
4b-
4b-}
{4b-
=7
4cc
4b-
4g
8cc
8b-
=8
2g
4g}
{8b-
8cc
=9
4dd
4dd
4dd
8ee-
8dd
=10
4cc
4b-
4cc}
{8b-
8cc
=11
8dd
8dd
8dd
8dd
4dd
8ee-
8dd
=12
4cc
4a
4fn}
{8b-
8cc
=13
4dd
4cc
4dd
8ee-
8dd
=14
4cc
4b-
4cc}
{8ee-
8dd
=15
4cc
8cc
8cc
8cc
8cc
8ee-
8ee-
=16
4dd
4b-
4fn}
{8b-
8cc
=17
8dd
8cc
8b-
8a
4g
8a
8b-
=18
4cc
4cc
4cc}
{8cc
8cc
=19
4dd
4dd
4g
8cc
8b-
=20
2a
4g}
==
!!!AGN: Ballade, verbotene Liebe, Flucht
!!!ONB: ESAC (Essen Associative Code) Database: BALLADE
!!!AMT: simple quadruple
!!!AIN: vox
!!!EED: Helmut Schaffrath
!!!EEV: 1.0
*-
